X:1
T:Laus Matutina
T:Laus Matutina
T:Public domain
T:Public domain
Z:Public domain
%%score { ( 1 2 ) ( 3 4 ) }
L:1/8
M:4/4
K:C
V:1 treble nm="P1"
V:2 treble 
V:3 bass nm="P2"
V:4 bass 
V:1
"^Editor: John Henry Fowler""^( Revision: 12-1-2007 )" E4 G3 E | C6 D2 | E2 G2 c2 B2 | %3
"^( 1885 )" A4 A2 G2 | e4 d4 | c3 c B2 A2 | B4"^John Stainer""^( 1840 - 1901 )" B4 | E8 | %8
 [CE]4 [DG]3 [CE] | C6 D2 | [CE]2 [EG]2 [Fc]2 [GB]2 | [FA]4 [EG]2 [EG]2 | [Ge]4 [Gd]4 | %13
 [Ec]2 [Ec]2 [^Ae]2 [Ac]2 | [Af]4 [Ac]4 | [Ge]8 |] %16
V:2
 C4 B,3 B, | C6 B,2 | C2 E2 F2 G2 | F4 F2 E2 | G4 G4 | E3 E G2 ^F2 | G4 ^F4 | E8 | x8 | C6 B,2 | %10
 x8 | x8 | x8 | x8 | x8 | x8 |] %16
V:3
 G,4 G,3 F, | E,6 G,2 | G,2 C2 C2 C2 | C4 C2 C2 | C4 B,4 | C3 C E2 E2 | E4 ^D4 | [E,E]8 | %8
"^1.Now, when the dusky shades of night, retreatingBefore the sun’s red banner, swiftly flee;Now, when the terrors of the dark are fleeting,O Lord, we lift our thankful hearts to Thee.                             2.To Thee, whose Word, the fount of light unsealing,When hill and dale in thickest darkness lay,Awoke bright rays across the dim earth stealing,And bade the even and morn complete the day.                             3.Look from the tower of heaven, and send to cheer us,Thy light and truth, to guide us onward still;Still let Thy mercy, as of old, be near us,And lead us safely to Thy holy hill." [C,G,]4 [C,_B,]3 [C,B,] | %9
"^Words: Gregory I  (540-604)  -  Ecce jam noctis tenuatur umbra." [C,A,]6 [C,_A,]2 | %10
 [C,G,]2 [C,C]2 [D,C]2 [E,C]2 | %11
 C4 C2"^4.In vain to labor, unless Thou be with him,Man goeth forth through all the weary day;In vain his strife, in vain his toil unceasing,Unless Thy staff bring comfort on his way.                             5.Thou, who hast made the north and south, watch o’er us;Thou, in Whose Name the lonely ones rejoice,Still let Thy cloudy pillar glide before us,Still let us listen for Thy warning voice.                             6.So, when the morn of endless light is waking,And shades of evil from its splendors flee,Safe may we rise, the earth’s dark breast forsaking,Through all the long bright day to dwell with Thee." C2 | %12
 C4 B,4 | C2 C2 C2 C2 | C4 F4 | E8 |] %16
V:4
 C,4 G,,3 G,, | A,,6 G,,2 | C,2 C,2 D,2 E,2 | F,4 C,2 C,2 | C4 G,4 | A,3 A, B,2 C2 | B,4 B,4 | x8 | %8
 x8 | x8 | x8 | F,4 C,2 C,2 | C4 G,4 | A,2 A,2 G,2 G,2 | F,4 F,4 | C,8 |] %16

